;FLAVOR:Marlin
;TIME:5692
;Filament used: 4.7297m
;Layer height: 0.2
;MINX:66.636
;MINY:46.775
;MINZ:0.2
;MAXX:153.995
;MAXY:137.283
;MAXZ:11
;Generated with Cura_SteamEngine 5.2.0
M140 S60
M105
M190 S60
M104 S205
M105
M109 S205
M82 ;absolute extrusion mode
G21 ;metric values
G90 ;absolute positioning
M82 ;set extruder to absolute mode
M107 ;start with the fan off
G28 X0 Y0 ;move X/Y to min endstops
G28 Z0 ;move Z to min endstops
G1 Z15.0 F100 ;move the platform down 15mm
G92 E0 ;zero the extruded length
G1 F200 E3 ;extrude 3mm of feed stock
G92 E0 ;zero the extruded length again
G1 F100
G0 Y20 F100
M117 Printing...
G5
G92 E0
G92 E0
G1 F2400 E-6
;LAYER_COUNT:55
;LAYER:0
M107
M204 S3000
M205 X10 Y10
G1 F600 Z0.275
G0 F3000 X74.917 Y54.62 Z0.275
M204 S1800
M205 X8 Y8
;TYPE:SKIRT
G1 F600 Z0.2
G1 F2400 E0
G1 X75.445 Y53.921 E0.04079
G1 X76.007 Y53.245 E0.08173
G1 X76.74 Y52.45 E0.13208
G1 X77.361 Y51.845 E0.17245
G1 X78.102 Y51.177 E0.2189
G1 X79.141 Y50.367 E0.28025
G1 X79.969 Y49.807 E0.32679
G1 X81 Y49.176 E0.38308
G1 X82.161 Y48.577 E0.44391
G1 X83.387 Y48.049 E0.50607
G1 X84.508 Y47.663 E0.56127
G1 X85.345 Y47.418 E0.60188
G1 X86.203 Y47.209 E0.643
G1 X87.184 Y47.014 E0.68958
G1 X88.171 Y46.887 E0.73591
G1 X89.245 Y46.8 E0.78609
G1 X90.103 Y46.775 E0.82606
G1 X127.103 Y47.086 E2.54899
G1 X127.681 Y47.131 E2.57599
G1 X128.247 Y47.255 E2.60297
G1 X128.79 Y47.455 E2.62991
G1 X129.301 Y47.729 E2.65691
G1 X129.769 Y48.07 E2.68388
G1 X130.186 Y48.472 E2.71085
G1 X130.544 Y48.928 E2.73784
G1 X130.835 Y49.429 E2.76482
G1 X131.055 Y49.965 E2.7918
G1 X131.199 Y50.526 E2.81877
G1 X131.268 Y51.286 E2.8543
G1 X131.268 Y68.632 E3.66201
G1 X131.582 Y68.576 E3.67686
G1 X132.161 Y68.553 E3.70384
G1 X132.759 Y68.607 E3.7318
G1 X133.328 Y68.715 E3.75877
G1 X133.877 Y68.901 E3.78576
G1 X134.395 Y69.16 E3.81272
G1 X134.953 Y69.542 E3.84421
G1 X135.841 Y70.38 E3.90107
G1 X136.79 Y71.315 E3.9631
G1 X137.323 Y71.86 E3.9986
G1 X138.307 Y72.901 E4.0653
G1 X139.229 Y73.926 E4.12949
G1 X140.169 Y75.024 E4.1968
G1 X140.635 Y75.587 E4.23083
G1 X141.457 Y76.617 E4.29219
G1 X142.371 Y77.823 E4.36265
G1 X143.197 Y78.969 E4.42843
G1 X144.026 Y80.175 E4.49658
G1 X144.384 Y80.719 E4.5269
G1 X145.088 Y81.828 E4.58807
G1 X145.527 Y82.545 E4.62721
G1 X146.196 Y83.686 E4.6888
G1 X146.825 Y84.819 E4.74914
G1 X147.189 Y85.5 E4.7851
G1 X147.757 Y86.614 E4.84333
G1 X148.134 Y87.383 E4.88321
G1 X148.738 Y88.675 E4.94962
G1 X149.279 Y89.912 E5.01248
G1 X149.556 Y90.579 E5.04611
G1 X150.076 Y91.884 E5.11153
G1 X150.55 Y93.172 E5.17543
G1 X151.018 Y94.536 E5.24258
G1 X151.24 Y95.227 E5.27638
G1 X151.641 Y96.543 E5.34044
G1 X152.012 Y97.885 E5.40527
G1 X152.213 Y98.662 E5.44264
G1 X152.54 Y100.032 E5.50823
G1 X152.808 Y101.274 E5.56739
G1 X153.096 Y102.792 E5.63934
G1 X153.233 Y103.604 E5.67768
G1 X153.416 Y104.811 E5.73453
G1 X153.601 Y106.253 E5.80222
G1 X153.743 Y107.617 E5.86608
G1 X153.864 Y109.158 E5.93806
G1 X153.941 Y110.597 E6.00516
G1 X153.984 Y111.925 E6.06703
G1 X153.995 Y113.254 E6.12891
G1 X153.989 Y113.991 E6.16323
G1 X153.944 Y115.521 E6.23451
G1 X153.885 Y116.682 E6.28864
G1 X153.816 Y117.258 E6.31565
G1 X153.668 Y117.818 E6.34262
G1 X153.444 Y118.352 E6.36958
G1 X153.149 Y118.851 E6.39658
G1 X152.788 Y119.304 E6.42355
G1 X152.368 Y119.703 E6.45052
G1 X151.782 Y120.124 E6.48412
G1 X152.249 Y121.529 E6.55306
G1 X152.485 Y122.657 E6.60673
G1 X152.57 Y123.332 E6.63841
G1 X152.619 Y124.452 E6.69061
G1 X152.592 Y125.141 E6.72271
G1 X152.458 Y126.243 E6.77441
G1 X152.223 Y127.311 E6.82533
G1 X152.022 Y127.964 E6.85714
G1 X151.599 Y129.024 E6.91028
G1 X151.26 Y129.692 E6.94516
G1 X150.566 Y130.803 E7.00616
G1 X150.11 Y131.405 E7.04133
G1 X149.329 Y132.263 E7.09535
G1 X148.476 Y133.01 E7.14815
G1 X148.04 Y133.344 E7.17372
G1 X147.094 Y133.975 E7.22667
G1 X146.103 Y134.484 E7.27855
G1 X145.054 Y134.9 E7.3311
G1 X144.333 Y135.113 E7.3661
G1 X143.25 Y135.33 E7.41753
G1 X142.711 Y135.402 E7.44285
G1 X141.571 Y135.48 E7.49606
G1 X140.459 Y135.429 E7.5479
G1 X139.338 Y135.266 E7.60064
G1 X138.609 Y135.092 E7.63554
G1 X137.568 Y134.744 E7.68665
G1 X137.055 Y134.534 E7.71246
G1 X136.247 Y134.139 E7.75434
G1 X135.369 Y133.627 E7.80167
G1 X134.457 Y132.936 E7.85495
G1 X134.042 Y132.576 E7.88053
G1 X133.403 Y131.945 E7.92235
G1 X133.041 Y131.539 E7.94768
G1 X132.336 Y130.635 E8.00106
G1 X131.812 Y129.759 E8.04859
G1 X131.299 Y128.742 E8.10163
G1 X130.902 Y127.658 E8.15538
G1 X130.634 Y126.559 E8.20806
G1 X130.54 Y126.025 E8.2333
G1 X130.42 Y124.935 E8.28436
G1 X130.405 Y124.18 E8.31953
G1 X130.487 Y123.02 E8.37368
G1 X130.673 Y122.026 E8.42076
G1 X113.488 Y122.029 E9.22097
G1 X113.748 Y122.363 E9.24068
G1 X114.226 Y123.064 E9.28019
G1 X114.529 Y123.584 E9.30821
G1 X114.988 Y124.522 E9.35684
G1 X115.277 Y125.301 E9.39553
G1 X115.498 Y126.142 E9.43602
G1 X115.6 Y126.66 E9.4606
G1 X115.711 Y127.502 E9.50015
G1 X115.765 Y128.253 E9.53521
G1 X115.718 Y129.047 E9.57224
G1 X115.605 Y129.615 E9.59921
G1 X115.415 Y130.162 E9.62617
G1 X115.151 Y130.678 E9.65316
G1 X114.63 Y131.386 E9.69409
G1 X114.126 Y131.877 E9.72686
G1 X113.659 Y132.22 E9.75384
G1 X113.15 Y132.496 E9.7808
G1 X112.607 Y132.699 E9.80779
G1 X112.458 Y132.732 E9.8149
G1 X112.008 Y133.38 E9.85164
G1 X111.281 Y134.208 E9.90294
G1 X110.729 Y134.732 E9.93838
G1 X109.87 Y135.411 E9.98937
G1 X109.124 Y135.88 E10.0304
G1 X108.655 Y136.135 E10.05526
G1 X107.868 Y136.5 E10.09565
G1 X107.363 Y136.696 E10.12088
G1 X106.741 Y136.892 E10.15124
G1 X106.234 Y137.018 E10.17557
G1 X105.375 Y137.175 E10.21623
G1 X104.839 Y137.237 E10.24136
G1 X103.96 Y137.283 E10.28234
G1 X102.867 Y137.223 E10.33331
G1 X101.75 Y137.037 E10.38604
G1 X100.947 Y136.819 E10.42479
G1 X99.946 Y136.438 E10.47466
G1 X99.46 Y136.217 E10.49952
G1 X98.884 Y135.909 E10.52993
G1 X98.43 Y135.628 E10.5548
G1 X97.724 Y135.126 E10.59513
G1 X97.306 Y134.786 E10.62022
G1 X96.657 Y134.185 E10.66141
G1 X95.939 Y133.364 E10.7122
G1 X95.488 Y132.74 E10.74805
G1 X94.928 Y131.794 E10.79924
G1 X94.471 Y130.789 E10.85065
G1 X94.195 Y129.945 E10.89199
G1 X94.064 Y129.44 E10.91629
G1 X93.847 Y128.321 E10.96936
G1 X93.786 Y127.32 E11.01606
G1 X93.793 Y126.428 E11.0576
G1 X93.884 Y125.59 E11.09685
G1 X94.106 Y124.543 E11.14668
G1 X94.409 Y123.521 E11.19632
G1 X94.877 Y122.486 E11.24921
G1 X95.125 Y122.029 E11.27342
G1 X93.642 Y122.029 E11.34248
G1 X92.782 Y121.996 E11.38255
G1 X91.922 Y121.925 E11.42273
G1 X91.034 Y121.808 E11.46444
G1 X89.987 Y121.616 E11.51401
G1 X89.121 Y121.411 E11.55544
G1 X88.465 Y121.225 E11.58719
G1 X87.327 Y120.85 E11.64299
G1 X86.122 Y120.351 E11.70372
G1 X85.045 Y119.811 E11.75982
G1 X84.448 Y119.478 E11.79165
G1 X83.54 Y118.916 E11.84137
G1 X82.816 Y118.414 E11.8824
G1 X82.272 Y118.002 E11.91417
G1 X81.356 Y117.245 E11.96951
G1 X80.385 Y116.313 E12.03218
G1 X79.599 Y115.44 E12.08688
G1 X79.046 Y114.763 E12.12758
G1 X78.636 Y114.217 E12.15937
G1 X78.137 Y113.491 E12.20039
G1 X77.676 Y112.748 E12.24111
G1 X77.155 Y111.803 E12.29136
G1 X76.773 Y111.016 E12.33209
G1 X76.5 Y110.389 E12.36394
G1 X76.184 Y109.572 E12.40473
G1 X75.905 Y108.741 E12.44554
G1 X75.664 Y107.89 E12.48673
G1 X75.426 Y106.848 E12.5365
G1 X75.305 Y106.176 E12.56829
G1 X75.186 Y105.302 E12.60936
G1 X75.107 Y104.432 E12.65004
G1 X75.066 Y103.357 E12.70013
G1 X75.078 Y102.481 E12.74093
G1 X75.133 Y101.472 E12.78798
G1 X75.286 Y100.297 E12.84316
G1 X75.454 Y99.321 E12.88927
G1 X75.772 Y98.031 E12.95114
G1 X76.077 Y97.081 E12.9976
G1 X76.489 Y95.965 E13.05299
G1 X77.039 Y94.759 E13.11471
G1 X77.514 Y93.883 E13.16111
G1 X77.967 Y93.126 E13.20219
G1 X78.565 Y92.233 E13.25223
G1 X79.053 Y91.581 E13.29016
G1 X78.832 Y91.561 E13.30049
G1 X78.267 Y91.43 E13.3275
G1 X77.68 Y91.202 E13.35682
G1 X77.471 Y91.102 E13.36761
G1 X77.257 Y91.18 E13.37821
G1 X77.037 Y91.532 E13.39754
G1 X76.688 Y91.995 E13.42454
G1 X76.151 Y92.54 E13.46017
G1 X75.711 Y92.916 E13.48712
G1 X75.024 Y93.329 E13.52444
G1 X74.533 Y93.564 E13.54979
G1 X73.995 Y93.778 E13.57675
G1 X73.237 Y93.959 E13.61304
G1 X72.491 Y94.027 E13.64792
G1 X71.758 Y93.999 E13.68207
G1 X70.988 Y93.87 E13.71843
G1 X70.233 Y93.625 E13.75539
G1 X69.703 Y93.391 E13.78237
G1 X69.126 Y93.04 E13.81381
G1 X68.661 Y92.695 E13.84078
G1 X68.017 Y92.044 E13.88342
G1 X67.653 Y91.594 E13.91037
G1 X67.243 Y90.895 E13.9481
G1 X67.003 Y90.368 E13.97506
G1 X66.824 Y89.752 E14.00493
G1 X66.714 Y89.224 E14.03005
G1 X66.636 Y88.65 E14.05702
G1 X66.636 Y87.979 E14.08827
G1 X66.757 Y87.195 E14.1252
G1 X66.885 Y86.63 E14.15218
G1 X67.256 Y85.719 E14.19798
G1 X67.693 Y85.007 E14.23688
G1 X68.212 Y84.409 E14.27375
G1 X68.601 Y84.038 E14.29878
G1 X69.047 Y83.668 E14.32577
G1 X69.592 Y83.336 E14.35548
G1 X70.38 Y82.971 E14.39592
G1 X70.854 Y82.53 E14.42607
G1 X71.331 Y82.201 E14.45305
G1 X71.849 Y81.941 E14.48004
G1 X72.372 Y81.761 E14.50579
G1 X78.221 Y80.172 E14.78802
G1 X77.541 Y79.583 E14.82991
G1 X76.812 Y78.895 E14.87658
G1 X76.006 Y78.015 E14.93215
G1 X75.446 Y77.341 E14.97295
G1 X74.915 Y76.639 E15.01394
G1 X74.35 Y75.822 E15.06019
G1 X73.673 Y74.687 E15.12173
G1 X73.083 Y73.506 E15.1832
G1 X72.573 Y72.288 E15.24469
G1 X72.152 Y71.042 E15.30593
G1 X71.855 Y69.888 E15.36142
G1 X71.677 Y69.028 E15.40231
G1 X71.538 Y68.159 E15.44329
G1 X71.421 Y67.156 E15.49031
G1 X71.376 Y66.161 E15.53669
G1 X71.376 Y65.097 E15.58623
G1 X71.422 Y64.101 E15.63266
G1 X71.575 Y62.787 E15.69426
G1 X71.818 Y61.495 E15.75548
G1 X72.151 Y60.226 E15.81657
G1 X72.583 Y58.948 E15.87938
G1 X73.081 Y57.762 E15.93928
G1 X73.673 Y56.576 E16.001
G1 X74.349 Y55.441 E16.06252
G1 X74.917 Y54.62 E16.109
M204 S3000
M205 X10 Y10
G0 F3000 X75.477 Y54.802
M204 S1800
M205 X8 Y8
G1 F2400 X75.995 Y54.129 E16.14855
G1 X76.435 Y53.605 E16.18041
G1 X77.007 Y52.979 E16.21989
G1 X77.62 Y52.37 E16.26013
G1 X78.459 Y51.609 E16.31287
G1 X79.473 Y50.818 E16.37276
G1 X80.282 Y50.271 E16.41823
G1 X81.277 Y49.663 E16.47253
G1 X82.412 Y49.078 E16.53198
G1 X83.589 Y48.572 E16.59164
G1 X84.667 Y48.199 E16.64476
G1 X85.322 Y48.004 E16.67658
G1 X86.143 Y47.796 E16.71602
G1 X87.263 Y47.568 E16.76924
G1 X88.413 Y47.425 E16.8232
G1 X89.264 Y47.36 E16.86294
G1 X90.099 Y47.335 E16.90184
G1 X127.099 Y47.646 E18.62477
G1 X127.636 Y47.691 E18.64987
G1 X128.161 Y47.814 E18.67498
G1 X128.662 Y48.014 E18.70009
G1 X129.128 Y48.285 E18.7252
G1 X129.549 Y48.622 E18.75031
G1 X129.915 Y49.018 E18.77542
G1 X130.219 Y49.463 E18.80051
G1 X130.454 Y49.949 E18.82565
G1 X130.614 Y50.464 E18.85076
G1 X130.708 Y51.075 E18.87954
G1 X130.708 Y69.362 E19.73106
G1 X131.221 Y69.203 E19.75607
G1 X131.754 Y69.122 E19.78118
G1 X132.566 Y69.138 E19.81899
G1 X133.222 Y69.267 E19.85012
G1 X133.73 Y69.447 E19.87522
G1 X134.206 Y69.7 E19.90032
G1 X134.76 Y70.13 E19.93298
G1 X135.448 Y70.779 E19.97702
G1 X136.397 Y71.714 E20.03905
G1 X136.916 Y72.244 E20.07359
G1 X137.828 Y73.208 E20.13538
G1 X138.871 Y74.368 E20.20802
G1 X139.738 Y75.381 E20.27011
G1 X140.197 Y75.936 E20.30364
G1 X141.019 Y76.966 E20.36501
G1 X141.917 Y78.15 E20.4342
G1 X142.689 Y79.22 E20.49564
G1 X143.558 Y80.483 E20.56703
G1 X143.911 Y81.019 E20.59691
G1 X144.645 Y82.176 E20.66071
G1 X145.044 Y82.828 E20.69631
G1 X145.707 Y83.959 E20.75735
G1 X146.331 Y85.083 E20.81722
G1 X146.69 Y85.755 E20.85269
G1 X147.282 Y86.917 E20.91342
G1 X147.627 Y87.62 E20.94988
G1 X148.187 Y88.815 E21.01133
G1 X148.762 Y90.127 E21.07803
G1 X149.035 Y90.787 E21.11129
G1 X149.59 Y92.183 E21.18124
G1 X150.02 Y93.354 E21.23933
G1 X150.511 Y94.788 E21.30991
G1 X150.704 Y95.39 E21.33935
G1 X151.132 Y96.798 E21.40787
G1 X151.47 Y98.025 E21.46713
G1 X151.668 Y98.792 E21.50402
G1 X151.974 Y100.07 E21.56521
G1 X152.278 Y101.481 E21.63242
G1 X152.544 Y102.885 E21.69896
G1 X152.679 Y103.688 E21.73687
G1 X152.848 Y104.796 E21.78906
G1 X153.045 Y106.324 E21.8608
G1 X153.185 Y107.662 E21.92345
G1 X153.299 Y109.096 E21.99043
G1 X153.381 Y110.615 E22.06126
G1 X153.424 Y111.93 E22.12253
G1 X153.435 Y113.25 E22.18399
G1 X153.429 Y113.987 E22.21831
G1 X153.381 Y115.583 E22.29266
G1 X153.326 Y116.654 E22.3426
G1 X153.259 Y117.189 E22.36771
G1 X153.113 Y117.708 E22.39281
G1 X152.892 Y118.2 E22.41793
G1 X152.601 Y118.654 E22.44304
G1 X152.246 Y119.06 E22.46815
G1 X151.835 Y119.409 E22.49326
G1 X151.377 Y119.693 E22.51835
G1 X151.036 Y119.84 E22.53564
G1 X151.295 Y120.436 E22.5659
G1 X151.71 Y121.684 E22.62714
G1 X151.937 Y122.771 E22.67885
G1 X152.011 Y123.357 E22.70635
G1 X152.06 Y124.477 E22.75855
G1 X152.037 Y125.074 E22.78637
G1 X151.908 Y126.139 E22.83633
G1 X151.676 Y127.191 E22.88649
G1 X151.502 Y127.756 E22.91402
G1 X151.079 Y128.816 E22.96716
G1 X150.785 Y129.395 E22.9974
G1 X150.091 Y130.506 E23.05839
G1 X149.696 Y131.028 E23.08887
G1 X148.94 Y131.859 E23.14119
G1 X147.925 Y132.748 E23.20401
G1 X146.808 Y133.492 E23.26651
G1 X145.874 Y133.973 E23.31543
G1 X144.848 Y134.379 E23.36681
G1 X144.223 Y134.564 E23.39716
G1 X142.904 Y134.828 E23.45979
G1 X141.575 Y134.919 E23.52182
G1 X140.515 Y134.87 E23.57123
G1 X139.419 Y134.711 E23.6228
G1 X138.787 Y134.561 E23.65305
G1 X137.516 Y134.136 E23.71545
G1 X136.493 Y133.636 E23.76847
G1 X135.684 Y133.163 E23.81211
G1 X134.601 Y132.342 E23.87539
G1 X133.628 Y131.381 E23.93907
G1 X132.802 Y130.321 E24.00164
G1 X132.312 Y129.507 E24.04588
G1 X131.816 Y128.522 E24.09724
G1 X131.437 Y127.491 E24.14839
G1 X131.123 Y126.203 E24.21012
G1 X130.977 Y124.873 E24.27242
G1 X130.964 Y124.22 E24.30283
G1 X131.044 Y123.085 E24.35581
G1 X131.248 Y121.994 E24.4075
G1 X131.415 Y121.383 E24.43699
G1 X130.855 Y121.469 E24.46337
G1 X112.203 Y121.469 E25.33189
G1 X112.582 Y121.84 E25.35658
G1 X113.156 Y122.489 E25.39693
G1 X113.763 Y123.379 E25.44709
G1 X114.026 Y123.83 E25.4714
G1 X114.485 Y124.768 E25.52003
G1 X114.735 Y125.443 E25.55354
G1 X115.016 Y126.512 E25.60501
G1 X115.156 Y127.575 E25.65494
G1 X115.192 Y128.475 E25.69688
G1 X115.158 Y129.013 E25.72198
G1 X115.044 Y129.54 E25.74709
G1 X114.854 Y130.045 E25.77221
G1 X114.592 Y130.516 E25.79731
G1 X114.2 Y131.026 E25.82726
G1 X113.735 Y131.474 E25.85733
G1 X113.296 Y131.787 E25.88243
G1 X112.815 Y132.031 E25.90755
G1 X112.304 Y132.202 E25.93264
G1 X112.112 Y132.236 E25.94172
G1 X111.903 Y132.565 E25.95987
G1 X111.435 Y133.183 E25.99596
G1 X110.86 Y133.838 E26.03655
G1 X110.382 Y134.293 E26.06728
G1 X109.549 Y134.951 E26.11671
G1 X108.631 Y135.529 E26.16722
G1 X107.414 Y136.093 E26.22968
G1 X106.357 Y136.426 E26.28128
G1 X105.045 Y136.666 E26.34339
G1 X103.962 Y136.722 E26.39388
G1 X102.936 Y136.666 E26.44173
G1 X101.842 Y136.484 E26.49337
G1 X101.146 Y136.296 E26.52694
G1 X99.93 Y135.833 E26.58753
G1 X98.941 Y135.304 E26.63975
G1 X97.859 Y134.535 E26.70156
G1 X97.064 Y133.8 E26.75198
G1 X96.361 Y132.995 E26.80175
G1 X95.97 Y132.455 E26.83279
G1 X95.427 Y131.537 E26.88245
G1 X94.992 Y130.582 E26.93132
G1 X94.658 Y129.56 E26.98138
G1 X94.403 Y128.247 E27.04366
G1 X94.346 Y127.324 E27.08673
G1 X94.353 Y126.432 E27.12826
G1 X94.432 Y125.706 E27.16227
G1 X94.654 Y124.659 E27.2121
G1 X94.933 Y123.72 E27.25772
G1 X95.387 Y122.717 E27.30898
G1 X95.641 Y122.25 E27.33374
G1 X96.147 Y121.469 E27.37707
G1 X93.487 Y121.466 E27.50093
G1 X92.806 Y121.437 E27.53267
G1 X91.971 Y121.367 E27.57169
G1 X90.95 Y121.228 E27.61967
G1 X90.278 Y121.105 E27.65148
G1 X89.274 Y120.872 E27.69947
G1 X88.618 Y120.686 E27.73122
G1 X87.532 Y120.328 E27.78447
G1 X86.342 Y119.836 E27.84443
G1 X85.318 Y119.322 E27.89778
G1 X84.721 Y118.989 E27.92961
G1 X84.001 Y118.548 E27.96892
G1 X83.154 Y117.968 E28.01672
G1 X82.61 Y117.556 E28.0485
G1 X81.728 Y116.826 E28.10181
G1 X80.786 Y115.922 E28.16261
G1 X80.031 Y115.084 E28.21513
G1 X79.597 Y114.558 E28.24688
G1 X79.084 Y113.881 E28.28643
G1 X78.6 Y113.176 E28.32625
G1 X78.153 Y112.455 E28.36575
G1 X77.737 Y111.709 E28.40553
G1 X77.287 Y110.792 E28.45309
G1 X76.95 Y110.009 E28.49278
G1 X76.651 Y109.215 E28.53229
G1 X76.386 Y108.398 E28.57228
G1 X76.204 Y107.741 E28.60403
G1 X75.978 Y106.749 E28.6514
G1 X75.83 Y105.906 E28.69126
G1 X75.723 Y105.064 E28.73078
G1 X75.665 Y104.384 E28.76256
G1 X75.626 Y103.362 E28.81018
G1 X75.637 Y102.512 E28.84977
G1 X75.691 Y101.532 E28.89547
G1 X75.838 Y100.392 E28.94899
