;FLAVOR:Marlin
;TIME:15302
;Filament used: 11.881m
;Layer height: 0.2
;MINX:30.75
;MINY:29.872
;MINZ:0.2
;MAXX:179.3
;MAXY:148.15
;MAXZ:17.6
;Generated with Cura_SteamEngine 5.2.1
M140 S60
M105
M190 S60
M104 S205
M105
M109 S205
M82 ;absolute extrusion mode
G21 ;metric values
G90 ;absolute positioning
M82 ;set extruder to absolute mode
M107 ;start with the fan off
G28 X0 Y0 ;move X/Y to min endstops
G28 Z0 ;move Z to min endstops
G1 Z15.0 F100 ;move the platform down 15mm
G92 E0 ;zero the extruded length
G1 F200 E3 ;extrude 3mm of feed stock
G92 E0 ;zero the extruded length again
G1 F100
G0 Y20 F100
M117 Printing...
G5
G92 E0
G92 E0
G1 F2400 E-6
;LAYER_COUNT:88
;LAYER:0
M107
M204 S3000
M205 X10 Y10
G1 F600 Z0.275
G0 F3000 X35.996 Y62.8 Z0.275
M204 S1800
M205 X8 Y8
;TYPE:SKIRT
G1 F600 Z0.2
G1 F2400 E0
G1 X36.626 Y62.461 E0.03331
G1 X37.29 Y62.195 E0.06662
G1 X38.241 Y61.953 E0.11231
G1 X38.748 Y61.865 E0.13627
G1 X40.645 Y61.565 E0.2257
G1 X43.244 Y61.079 E0.34882
G1 X45.847 Y60.515 E0.47284
G1 X48.371 Y59.894 E0.59388
G1 X50.982 Y59.17 E0.72004
G1 X53.458 Y58.411 E0.84063
G1 X55.999 Y57.55 E0.96556
G1 X58.485 Y56.629 E1.089
G1 X60.9 Y55.656 E1.21024
G1 X63.372 Y54.578 E1.33582
G1 X65.737 Y53.466 E1.45751
G1 X68.122 Y52.26 E1.58195
G1 X70.448 Y51.002 E1.70509
G1 X72.734 Y49.678 E1.8281
G1 X74.976 Y48.295 E1.95076
G1 X77.182 Y46.848 E2.07361
G1 X79.366 Y45.322 E2.19767
G1 X81.512 Y43.734 E2.32198
G1 X83.58 Y42.109 E2.44444
G1 X85.586 Y40.439 E2.56598
G1 X87.622 Y38.644 E2.69237
G1 X89.524 Y36.871 E2.81345
G1 X90.915 Y35.511 E2.90403
G1 X91.721 Y34.779 E2.95473
G1 X92.542 Y34.108 E3.00411
G1 X93.536 Y33.383 E3.06139
G1 X94.527 Y32.757 E3.11598
G1 X95.456 Y32.237 E3.16555
G1 X96.076 Y31.922 E3.19793
G1 X96.91 Y31.539 E3.24066
G1 X97.992 Y31.103 E3.29498
G1 X99.106 Y30.735 E3.34961
G1 X99.982 Y30.485 E3.39203
G1 X101.28 Y30.205 E3.45386
G1 X102.325 Y30.038 E3.50314
G1 X103.562 Y29.909 E3.56105
G1 X104.538 Y29.872 E3.60653
G1 X105.571 Y29.874 E3.65463
G1 X106.457 Y29.915 E3.69593
G1 X107.059 Y29.966 E3.72406
G1 X107.77 Y30.059 E3.75745
G1 X108.768 Y30.223 E3.80455
G1 X109.498 Y30.368 E3.8392
G1 X110.279 Y30.559 E3.87664
G1 X110.979 Y30.76 E3.91055
G1 X111.696 Y30.997 E3.94572
G1 X112.774 Y31.402 E3.99934
G1 X113.544 Y31.742 E4.03853
G1 X114.54 Y32.231 E4.0902
G1 X115.452 Y32.744 E4.13892
G1 X116.495 Y33.406 E4.19645
G1 X117.259 Y33.962 E4.24045
G1 X118.142 Y34.66 E4.29286
G1 X118.878 Y35.313 E4.33867
G1 X119.831 Y36.244 E4.40071
G1 X121.83 Y38.141 E4.52903
G1 X123.779 Y39.888 E4.65091
G1 X125.791 Y41.592 E4.77368
G1 X127.883 Y43.264 E4.89838
G1 X129.999 Y44.86 E5.0218
G1 X132.158 Y46.393 E5.14509
G1 X134.356 Y47.864 E5.26825
G1 X136.589 Y49.268 E5.39107
G1 X138.856 Y50.604 E5.5136
G1 X141.201 Y51.9 E5.63836
G1 X143.533 Y53.103 E5.76054
G1 X145.911 Y54.246 E5.8834
G1 X148.372 Y55.344 E6.00888
G1 X150.795 Y56.344 E6.13094
G1 X153.274 Y57.285 E6.25441
G1 X155.786 Y58.161 E6.37828
G1 X158.274 Y58.95 E6.49982
G1 X160.834 Y59.68 E6.62378
G1 X163.417 Y60.339 E6.74791
G1 X165.959 Y60.913 E6.86925
G1 X168.623 Y61.435 E6.99566
G1 X170.764 Y61.797 E7.09677
G1 X171.652 Y61.936 E7.13862
G1 X172.351 Y62.086 E7.17191
G1 X173.029 Y62.313 E7.2052
G1 X173.678 Y62.614 E7.23851
G1 X174.289 Y62.986 E7.27182
G1 X174.855 Y63.424 E7.30515
G1 X175.368 Y63.922 E7.33844
G1 X175.823 Y64.474 E7.37175
G1 X176.213 Y65.074 E7.40507
G1 X176.534 Y65.713 E7.43837
G1 X176.781 Y66.384 E7.47166
G1 X176.952 Y67.078 E7.50494
G1 X177.059 Y68.08 E7.55187
G1 X177.071 Y68.58 E7.57516
G1 X177.072 Y141.092 E10.95162
G1 X177.063 Y141.82 E10.98552
G1 X177.014 Y142.534 E11.01885
G1 X176.886 Y143.237 E11.05212
G1 X176.68 Y143.922 E11.08543
G1 X176.399 Y144.58 E11.11874
G1 X176.046 Y145.202 E11.15204
G1 X175.626 Y145.782 E11.18539
G1 X175.144 Y146.31 E11.21868
G1 X174.607 Y146.782 E11.25197
G1 X174.019 Y147.19 E11.28529
G1 X173.39 Y147.531 E11.31861
G1 X172.727 Y147.799 E11.35191
G1 X172.039 Y147.991 E11.38517
G1 X171.186 Y148.13 E11.42541
G1 X170.343 Y148.15 E11.46468
G1 X39.953 Y148.149 E17.53618
G1 X39.255 Y148.14 E17.56869
G1 X38.542 Y148.091 E17.60197
G1 X37.838 Y147.963 E17.63528
G1 X37.153 Y147.757 E17.66859
G1 X36.496 Y147.475 E17.70188
G1 X35.874 Y147.122 E17.73519
G1 X35.295 Y146.702 E17.76849
G1 X34.766 Y146.22 E17.80182
G1 X34.295 Y145.682 E17.83511
G1 X33.887 Y145.095 E17.8684
G1 X33.547 Y144.465 E17.90173
G1 X33.279 Y143.802 E17.93503
G1 X33.087 Y143.113 E17.96834
G1 X32.973 Y142.407 E18.00164
G1 X32.94 Y141.906 E18.02502
G1 X32.929 Y141.392 E18.04896
G1 X32.929 Y68.828 E21.42784
G1 X32.939 Y68.162 E21.45886
G1 X32.989 Y67.448 E21.49218
G1 X33.119 Y66.745 E21.52547
G1 X33.327 Y66.061 E21.55876
G1 X33.61 Y65.404 E21.59207
G1 X33.964 Y64.782 E21.6254
G1 X34.385 Y64.204 E21.6587
G1 X34.869 Y63.677 E21.69201
G1 X35.408 Y63.207 E21.72531
G1 X35.996 Y62.8 E21.75861
M204 S3000
M205 X10 Y10
G0 F3000 X36.527 Y63.139
M204 S1800
M205 X8 Y8
G1 F2400 X37.144 Y62.846 E21.79042
G1 X37.791 Y62.627 E21.82222
G1 X38.337 Y62.504 E21.84828
G1 X38.835 Y62.418 E21.87182
G1 X40.766 Y62.113 E21.96285
G1 X43.329 Y61.634 E22.08426
G1 X45.956 Y61.065 E22.20942
G1 X48.552 Y60.425 E22.33392
G1 X51.108 Y59.717 E22.45742
G1 X53.666 Y58.932 E22.58201
G1 X56.165 Y58.086 E22.70486
G1 X58.669 Y57.158 E22.82921
G1 X61.126 Y56.168 E22.95255
G1 X63.613 Y55.083 E23.0789
G1 X65.977 Y53.972 E23.20053
G1 X68.362 Y52.766 E23.32498
G1 X70.717 Y51.492 E23.44965
G1 X73.031 Y50.152 E23.57416
G1 X75.284 Y48.763 E23.69741
G1 X77.507 Y47.303 E23.82125
G1 X79.708 Y45.766 E23.94625
G1 X81.81 Y44.21 E24.06803
G1 X83.943 Y42.535 E24.19431
G1 X85.974 Y40.844 E24.31737
G1 X87.998 Y39.06 E24.44301
G1 X89.923 Y37.265 E24.56556
G1 X91.307 Y35.912 E24.65569
G1 X92.087 Y35.203 E24.70477
G1 X92.887 Y34.549 E24.75289
G1 X93.86 Y33.84 E24.80894
G1 X94.915 Y33.181 E24.86687
G1 X95.71 Y32.736 E24.90929
G1 X96.33 Y32.421 E24.94167
G1 X97.14 Y32.05 E24.98316
G1 X98.185 Y31.63 E25.0356
G1 X99.123 Y31.313 E25.0817
G1 X100.021 Y31.059 E25.12516
G1 X100.522 Y30.937 E25.14917
G1 X101.263 Y30.781 E25.18443
G1 X102.385 Y30.595 E25.23739
G1 X103.61 Y30.467 E25.29474
G1 X104.825 Y30.428 E25.35134
G1 X105.834 Y30.442 E25.39833
G1 X106.427 Y30.474 E25.42598
G1 X107.007 Y30.524 E25.45309
G1 X107.679 Y30.611 E25.48464
G1 X108.677 Y30.775 E25.53174
G1 X109.385 Y30.916 E25.56535
G1 X110.142 Y31.102 E25.60165
G1 X110.803 Y31.292 E25.63368
G1 X111.52 Y31.529 E25.66884
G1 X112.432 Y31.872 E25.71421
G1 X113.318 Y32.255 E25.75915
G1 X114.157 Y32.667 E25.80268
G1 X115.155 Y33.219 E25.85578
G1 X116.175 Y33.866 E25.91203
G1 X116.929 Y34.415 E25.95546
G1 X117.791 Y35.097 E26.00664
G1 X118.601 Y35.826 E26.05738
G1 X119.468 Y36.672 E26.11379
G1 X121.448 Y38.55 E26.24086
G1 X123.405 Y40.305 E26.36326
G1 X125.455 Y42.042 E26.48838
G1 X127.516 Y43.688 E26.6112
G1 X129.679 Y45.32 E26.73737
G1 X131.817 Y46.838 E26.85946
G1 X134.066 Y48.343 E26.98547
G1 X136.285 Y49.738 E27.10752
G1 X138.594 Y51.099 E27.23232
G1 X140.937 Y52.394 E27.35698
G1 X143.298 Y53.612 E27.48068
G1 X145.677 Y54.755 E27.60358
G1 X148.12 Y55.846 E27.72817
G1 X150.579 Y56.861 E27.85204
G1 X153.111 Y57.822 E27.97815
G1 X155.578 Y58.681 E28.09979
G1 X158.119 Y59.487 E28.22391
G1 X160.695 Y60.222 E28.34865
G1 X163.291 Y60.885 E28.47341
G1 X165.872 Y61.467 E28.59661
G1 X168.495 Y61.981 E28.72107
G1 X170.677 Y62.35 E28.82412
G1 X171.565 Y62.489 E28.86597
G1 X172.233 Y62.634 E28.8978
G1 X172.879 Y62.856 E28.92961
G1 X173.495 Y63.152 E28.96143
G1 X174.072 Y63.518 E28.99325
G1 X174.602 Y63.949 E29.02506
G1 X175.079 Y64.438 E29.05686
G1 X175.495 Y64.98 E29.08868
G1 X175.845 Y65.567 E29.1205
G1 X176.124 Y66.191 E29.15233
G1 X176.328 Y66.843 E29.18414
G1 X176.454 Y67.514 E29.21593
G1 X176.511 Y68.234 E29.24956
G1 X176.512 Y141.085 E32.64181
G1 X176.503 Y141.813 E32.67571
G1 X176.454 Y142.495 E32.70755
G1 X176.327 Y143.166 E32.73935
G1 X176.121 Y143.818 E32.77119
G1 X175.841 Y144.441 E32.80299
G1 X175.491 Y145.027 E32.83478
G1 X175.074 Y145.569 E32.86662
G1 X174.597 Y146.057 E32.8984
G1 X174.066 Y146.487 E32.93021
G1 X173.488 Y146.852 E32.96204
G1 X172.872 Y147.147 E32.99385
G1 X172.225 Y147.368 E33.02568
G1 X171.557 Y147.512 E33.0575
G1 X170.707 Y147.59 E33.09725
G1 X39.961 Y147.59 E39.18533
G1 X39.263 Y147.581 E39.21783
G1 X38.581 Y147.532 E39.24967
G1 X37.91 Y147.404 E39.28148
G1 X37.259 Y147.198 E39.31328
G1 X36.635 Y146.918 E39.34512
G1 X36.049 Y146.567 E39.37693
G1 X35.508 Y146.15 E39.40874
G1 X35.019 Y145.672 E39.44058
G1 X34.59 Y145.141 E39.47236
G1 X34.225 Y144.563 E39.50419
G1 X33.931 Y143.947 E39.53598
G1 X33.71 Y143.3 E39.56781
G1 X33.566 Y142.632 E39.59963
G1 X33.5 Y141.892 E39.63423
G1 X33.489 Y141.392 E39.65752
G1 X33.489 Y68.836 E43.03603
G1 X33.499 Y68.17 E43.06704
G1 X33.549 Y67.489 E43.09884
G1 X33.678 Y66.818 E43.13065
G1 X33.885 Y66.167 E43.16246
G1 X34.167 Y65.544 E43.19431
G1 X34.519 Y64.959 E43.2261
G1 X34.937 Y64.419 E43.25789
G1 X35.416 Y63.931 E43.28974
G1 X35.948 Y63.503 E43.32153
G1 X36.527 Y63.139 E43.35337
M204 S3000
M205 X10 Y10
G0 F3000 X37.052 Y63.499
M204 S1800
M205 X8 Y8
G1 F2400 X37.654 Y63.254 E43.38364
G1 X38.504 Y63.038 E43.42448
G1 X40.818 Y62.673 E43.53356
G1 X43.475 Y62.176 E43.65943
G1 X46.064 Y61.615 E43.78278
G1 X48.699 Y60.966 E43.90914
G1 X51.244 Y60.261 E44.03211
G1 X53.833 Y59.466 E44.15822
G1 X56.373 Y58.606 E44.28309
G1 X58.852 Y57.687 E44.4062
G1 X61.381 Y56.669 E44.53314
G1 X63.795 Y55.616 E44.65578
G1 X66.26 Y54.457 E44.78261
G1 X68.631 Y53.258 E44.90633
G1 X70.987 Y51.984 E45.03105
G1 X73.296 Y50.647 E45.15529
G1 X75.582 Y49.237 E45.28035
G1 X77.84 Y47.755 E45.40612
G1 X80.019 Y46.233 E45.52988
G1 X82.17 Y44.641 E45.65449
G1 X84.285 Y42.979 E45.77974
G1 X86.327 Y41.28 E45.90343
G1 X88.353 Y39.493 E46.02923
G1 X90.321 Y37.658 E46.15452
G1 X91.698 Y36.312 E46.24418
G1 X92.363 Y35.708 E46.28601
G1 X93.234 Y34.989 E46.3386
G1 X94.163 Y34.312 E46.39213
G1 X94.98 Y33.795 E46.43715
G1 X95.853 Y33.291 E46.48409
G1 X96.808 Y32.813 E46.53382
G1 X97.599 Y32.463 E46.57409
G1 X98.258 Y32.203 E46.60708
G1 X99.172 Y31.887 E46.65211
G1 X100.001 Y31.644 E46.69234
G1 X100.637 Y31.485 E46.72287
G1 X101.378 Y31.329 E46.75813
G1 X102.458 Y31.15 E46.8091
G1 X103.644 Y31.026 E46.86463
G1 X104.821 Y30.988 E46.91946
G1 X105.562 Y30.994 E46.95397
G1 X106.397 Y31.034 E46.99289
G1 X107.316 Y31.119 E47.03587
G1 X108.586 Y31.328 E47.0958
G1 X109.272 Y31.465 E47.12837
G1 X110.353 Y31.733 E47.18023
G1 X111.344 Y32.061 E47.22884
G1 X112.364 Y32.445 E47.27959
G1 X113.322 Y32.875 E47.32849
G1 X113.906 Y33.167 E47.35889
G1 X114.884 Y33.709 E47.41095
G1 X115.853 Y34.324 E47.4644
G1 X116.6 Y34.868 E47.50743
G1 X117.435 Y35.529 E47.55701
G1 X118.21 Y36.227 E47.60558
G1 X119.086 Y37.082 E47.66258
G1 X121.066 Y38.961 E47.78968
G1 X123.028 Y40.719 E47.91235
G1 X125.102 Y42.476 E48.03892
G1 X127.209 Y44.16 E48.16452
G1 X129.297 Y45.734 E48.28628
G1 X131.541 Y47.328 E48.41444
G1 X133.734 Y48.796 E48.53733
G1 X135.996 Y50.218 E48.66174
G1 X138.316 Y51.586 E48.78715
G1 X140.66 Y52.881 E48.91185
G1 X143.035 Y54.106 E49.03628
G1 X145.457 Y55.27 E49.16141
G1 X147.929 Y56.373 E49.28745
G1 X150.374 Y57.382 E49.41061
G1 X152.905 Y58.343 E49.53668
G1 X155.412 Y59.217 E49.66031
G1 X157.963 Y60.026 E49.78492
G1 X160.538 Y60.761 E49.90961
G1 X163.14 Y61.424 E50.03464
G1 X165.785 Y62.021 E50.1609
G1 X168.367 Y62.527 E50.28342
G1 X170.656 Y62.914 E50.39152
G1 X171.479 Y63.043 E50.43031
G1 X172.113 Y63.182 E50.46053
G1 X172.725 Y63.399 E50.49077
G1 X173.307 Y63.689 E50.52104
G1 X173.848 Y64.048 E50.55128
G1 X174.341 Y64.471 E50.58153
G1 X174.778 Y64.952 E50.61179
G1 X175.153 Y65.482 E50.64202
G1 X175.46 Y66.055 E50.67229
G1 X175.694 Y66.661 E50.70254
G1 X175.852 Y67.291 E50.73278
G1 X175.951 Y68.213 E50.77596
G1 X175.952 Y141.078 E54.16886
G1 X175.943 Y141.806 E54.20276
G1 X175.895 Y142.454 E54.23302
G1 X175.767 Y143.091 E54.26327
G1 X175.563 Y143.708 E54.29353
G1 X175.284 Y144.295 E54.32379
G1 X174.936 Y144.843 E54.35402
G1 X174.523 Y145.344 E54.38426
G1 X174.051 Y145.791 E54.41453
G1 X173.528 Y146.176 E54.44477
G1 X172.962 Y146.494 E54.475
G1 X172.361 Y146.741 E54.50525
G1 X171.734 Y146.911 E54.5355
G1 X170.717 Y147.03 E54.58318
G1 X39.968 Y147.03 E60.6714
G1 X39.27 Y147.021 E60.70391
G1 X38.622 Y146.972 E60.73417
G1 X37.985 Y146.845 E60.76441
G1 X37.369 Y146.64 E60.79464
G1 X36.782 Y146.361 E60.8249
G1 X36.234 Y146.012 E60.85516
G1 X35.733 Y145.599 E60.88539
G1 X35.286 Y145.127 E60.91566
G1 X34.901 Y144.604 E60.9459
G1 X34.583 Y144.037 E60.97617
G1 X34.337 Y143.436 E61.00641
G1 X34.167 Y142.809 E61.03666
G1 X34.049 Y141.781 E61.08484
G1 X34.049 Y68.845 E64.48105
G1 X34.059 Y68.179 E64.51206
G1 X34.108 Y67.531 E64.54232
G1 X34.237 Y66.894 E64.57259
G1 X34.443 Y66.278 E64.60283
G1 X34.723 Y65.692 E64.63307
G1 X35.073 Y65.145 E64.66331
G1 X35.488 Y64.645 E64.69357
G1 X35.961 Y64.199 E64.72384
G1 X36.485 Y63.815 E64.75409
G1 X37.052 Y63.499 E64.78432
M204 S3000
M205 X10 Y10
G1 F2400 E58.78432
G0 F3000 X39.468 Y68.39
M204 S1800
M205 X8 Y8
;TYPE:SUPPORT
G1 F2400 E64.78432
G1 F2100 X39.469 Y141.61 E67.21962
G1 X40.843 Y141.61 E67.26532
G1 X40.843 Y140.923 E67.28817
G1 X40.842 Y68.39 E69.70063
G1 X39.468 Y68.39 E69.74633
M204 S3000
M205 X10 Y10
G0 F3000 X40 Y68.53
M204 S1800
M205 X8 Y8
G1 F1500 X40 Y141.47 E73.14272
M204 S3000
M205 X10 Y10
G1 F2400 E67.14272
G0 F3000 X40.702 Y134.35
M204 S1800
M205 X8 Y8
G1 F2400 E73.14272
G1 F1500 X39.607 Y133.718 E73.20159
M204 S3000
M205 X10 Y10
G0 F3000 X39.609 Y134.17
M204 S1800
M205 X8 Y8
G1 F1500 X40.702 Y133.539 E73.26036
M204 S3000
M205 X10 Y10
G1 F2400 E67.26036
G0 F3000 X40.702 Y125.113
M204 S1800
M205 X8 Y8
G1 F2400 E73.26036
G1 F1500 X39.607 Y124.481 E73.31923
M204 S3000
M205 X10 Y10
G0 F3000 X39.609 Y124.933
M204 S1800
M205 X8 Y8
G1 F1500 X40.702 Y124.302 E73.378
M204 S3000
M205 X10 Y10
G1 F2400 E67.378
G0 F3000 X40.702 Y115.875
M204 S1800
M205 X8 Y8
G1 F2400 E73.378
G1 F1500 X39.607 Y115.243 E73.43687
M204 S3000
M205 X10 Y10
G0 F3000 X39.609 Y115.695
M204 S1800
M205 X8 Y8
G1 F1500 X40.701 Y115.065 E73.49557
M204 S3000
M205 X10 Y10
G1 F2400 E67.49557
G0 F3000 X40.702 Y106.637
M204 S1800
M205 X8 Y8
G1 F2400 E73.49557
G1 F1500 X39.607 Y106.005 E73.55444
M204 S3000
M205 X10 Y10
G0 F3000 X39.608 Y106.458
M204 S1800
M205 X8 Y8
G1 F1500 X40.701 Y105.827 E73.61321
M204 S3000
M205 X10 Y10
G1 F2400 E67.61321
G0 F3000 X40.701 Y97.4
M204 S1800
M205 X8 Y8
G1 F2400 E73.61321
G1 F1500 X39.608 Y96.768 E73.672
M204 S3000
M205 X10 Y10
G0 F3000 X39.608 Y97.22
M204 S1800
M205 X8 Y8
G1 F1500 X40.7 Y96.59 E73.7307
M204 S3000
M205 X10 Y10
G1 F2400 E67.7307
G0 F3000 X40.701 Y88.162
M204 S1800
M205 X8 Y8
G1 F2400 E73.7307
G1 F1500 X39.608 Y87.53 E73.78949
M204 S3000
M205 X10 Y10
G0 F3000 X39.608 Y87.983
M204 S1800
M205 X8 Y8
G1 F1500 X40.701 Y87.352 E73.84826
M204 S3000
M205 X10 Y10
G1 F2400 E67.84826
G0 F3000 X40.702 Y78.925
M204 S1800
M205 X8 Y8
G1 F2400 E73.84826
G1 F1500 X39.607 Y78.293 E73.90713
M204 S3000
M205 X10 Y10
G0 F3000 X39.607 Y78.746
M204 S1800
M205 X8 Y8
G1 F1500 X40.7 Y78.115 E73.9659
M204 S3000
M205 X10 Y10
G1 F2400 E67.9659
G0 F3000 X40.702 Y69.687
M204 S1800
M205 X8 Y8
G1 F2400 E73.9659
G1 F1500 X39.607 Y69.055 E74.02477
M204 S3000
M205 X10 Y10
G0 F3000 X39.607 Y69.508
M204 S1800
M205 X8 Y8
G1 F1500 X40.7 Y68.877 E74.08354
M204 S3000
M205 X10 Y10
G1 F2400 E68.08354
G1 F600 Z0.275
G0 F3000 X94.532 Y101.075 Z0.275
M204 S1800
M205 X8 Y8
G1 F600 Z0.2
G1 F2400 E74.08354
G1 F2333.3 X94.332 Y101.654 E74.10187
G1 X94.194 Y102.144 E74.11711
G1 F2339.8 X94.055 Y102.721 E74.13483
G1 X93.948 Y103.32 E74.15299
G1 X93.879 Y103.856 E74.16912
G1 X93.835 Y104.435 E74.18646
G1 X93.82 Y105.018 E74.20387
G1 F2333.3 X93.836 Y105.585 E74.22085
G1 X93.883 Y106.176 E74.23859
G1 X93.98 Y106.896 E74.26034
G1 F2320.4 X94.155 Y107.724 E74.28581
G1 F2326.9 X94.355 Y108.416 E74.30744
G1 F2339.8 X94.547 Y108.965 E74.3248
G1 F2333.3 X94.768 Y109.504 E74.34224
G1 X95.005 Y110.008 E74.35891
G1 F2320.4 X95.351 Y110.65 E74.38086
G1 X95.728 Y111.243 E74.40201
G1 F2333.3 X96.073 Y111.729 E74.41985
G1 F2339.8 X96.432 Y112.181 E74.43708
G1 F2333.3 X96.902 Y112.708 E74.45822
