;FLAVOR:Marlin
;TIME:13659
;Filament used: 11.2135m
;Layer height: 0.2
;MINX:30.725
;MINY:37.368
;MINZ:0.2
;MAXX:179.326
;MAXY:120.668
;MAXZ:18
;Generated with Cura_SteamEngine 5.2.0
M140 S60
M105
M190 S60
M104 S205
M105
M109 S205
M82 ;absolute extrusion mode
G21 ;metric values
G90 ;absolute positioning
M82 ;set extruder to absolute mode
M107 ;start with the fan off
G28 X0 Y0 ;move X/Y to min endstops
G28 Z0 ;move Z to min endstops
G1 Z15.0 F100 ;move the platform down 15mm
G92 E0 ;zero the extruded length
G1 F200 E3 ;extrude 3mm of feed stock
G92 E0 ;zero the extruded length again
G1 F100
G0 Y20 F100
M117 Printing...
G5
G92 E0
G92 E0
G1 F2400 E-6
;LAYER_COUNT:90
;LAYER:0
M107
M204 S3000
M205 X10 Y10
G1 F600 Z0.275
G0 F3000 X34.835 Y39.203 Z0.275
M204 S1800
M205 X8 Y8
;TYPE:SKIRT
G1 F600 Z0.2
G1 F2400 E0
G1 X35.373 Y38.732 E0.0333
G1 X35.961 Y38.324 E0.06662
G1 X36.59 Y37.984 E0.09991
G1 X37.254 Y37.717 E0.13324
G1 X37.943 Y37.525 E0.16654
G1 X38.79 Y37.388 E0.2065
G1 X39.631 Y37.368 E0.24567
G1 X170.082 Y37.369 E6.32001
G1 X170.78 Y37.379 E6.35252
G1 X171.493 Y37.429 E6.3858
G1 X172.197 Y37.558 E6.41913
G1 X172.881 Y37.766 E6.45242
G1 X173.538 Y38.048 E6.48571
G1 X174.16 Y38.402 E6.51903
G1 X174.738 Y38.823 E6.55233
G1 X175.266 Y39.306 E6.58565
G1 X175.736 Y39.844 E6.61892
G1 X176.144 Y40.432 E6.65224
G1 X176.483 Y41.062 E6.68555
G1 X176.75 Y41.725 E6.71884
G1 X176.941 Y42.415 E6.75217
G1 X177.054 Y43.121 E6.78547
G1 X177.097 Y44.093 E6.83077
G1 X177.097 Y113.622 E10.06833
G1 X177.088 Y114.339 E10.10172
G1 X177.04 Y115.053 E10.13504
G1 X176.911 Y115.757 E10.16837
G1 X176.705 Y116.442 E10.20168
G1 X176.424 Y117.099 E10.23495
G1 X176.071 Y117.721 E10.26825
G1 X175.652 Y118.3 E10.30153
G1 X175.17 Y118.829 E10.33486
G1 X174.632 Y119.3 E10.36815
G1 X174.044 Y119.709 E10.4015
G1 X173.415 Y120.049 E10.4348
G1 X172.752 Y120.317 E10.4681
G1 X172.063 Y120.51 E10.50141
G1 X171.209 Y120.648 E10.5417
G1 X170.369 Y120.668 E10.58082
G1 X39.927 Y120.667 E16.65475
G1 X39.229 Y120.658 E16.68725
G1 X38.516 Y120.609 E16.72053
G1 X37.812 Y120.481 E16.75385
G1 X37.127 Y120.275 E16.78716
G1 X36.47 Y119.993 E16.82045
G1 X35.848 Y119.64 E16.85375
G1 X35.269 Y119.22 E16.88706
G1 X34.74 Y118.738 E16.92038
G1 X34.269 Y118.2 E16.95368
G1 X33.861 Y117.613 E16.98696
G1 X33.521 Y116.983 E17.0203
G1 X33.253 Y116.32 E17.0536
G1 X33.061 Y115.631 E17.0869
G1 X32.947 Y114.925 E17.1202
G1 X32.914 Y114.42 E17.14377
G1 X32.903 Y113.901 E17.16794
G1 X32.903 Y44.355 E20.40629
G1 X32.912 Y43.69 E20.43726
G1 X32.961 Y42.977 E20.47054
G1 X33.09 Y42.273 E20.50387
G1 X33.297 Y41.589 E20.53714
G1 X33.579 Y40.931 E20.57048
G1 X33.932 Y40.309 E20.60378
G1 X34.352 Y39.731 E20.63705
G1 X34.835 Y39.203 E20.67037
M204 S3000
M205 X10 Y10
G0 F3000 X35.382 Y39.456
M204 S1800
M205 X8 Y8
G1 F2400 X35.914 Y39.027 E20.70219
G1 X36.492 Y38.662 E20.73402
G1 X37.109 Y38.368 E20.76585
G1 X37.755 Y38.148 E20.79763
G1 X38.423 Y38.005 E20.82944
G1 X39.268 Y37.928 E20.86895
G1 X170.074 Y37.929 E26.95982
G1 X170.772 Y37.939 E26.99233
G1 X171.453 Y37.988 E27.02412
G1 X172.124 Y38.117 E27.05594
G1 X172.775 Y38.324 E27.08774
G1 X173.398 Y38.605 E27.11957
G1 X173.984 Y38.957 E27.1514
G1 X174.524 Y39.375 E27.1832
G1 X175.012 Y39.853 E27.215
G1 X175.441 Y40.385 E27.24683
G1 X175.805 Y40.963 E27.27863
G1 X176.099 Y41.58 E27.31046
G1 X176.318 Y42.227 E27.34227
G1 X176.461 Y42.895 E27.37408
G1 X176.537 Y43.732 E27.41321
G1 X176.538 Y113.615 E30.66725
G1 X176.529 Y114.332 E30.70064
G1 X176.48 Y115.014 E30.73248
G1 X176.352 Y115.685 E30.76429
G1 X176.147 Y116.337 E30.79612
G1 X175.867 Y116.96 E30.82792
G1 X175.516 Y117.546 E30.85973
G1 X175.099 Y118.087 E30.89153
G1 X174.622 Y118.576 E30.92334
G1 X174.091 Y119.006 E30.95516
G1 X173.513 Y119.371 E30.98699
G1 X172.897 Y119.666 E31.01879
G1 X172.25 Y119.886 E31.05061
G1 X171.582 Y120.03 E31.08243
G1 X170.733 Y120.108 E31.12213
G1 X39.935 Y120.108 E37.21264
G1 X39.237 Y120.099 E37.24514
G1 X38.555 Y120.05 E37.27698
G1 X37.884 Y119.922 E37.30879
G1 X37.233 Y119.716 E37.34058
G1 X36.609 Y119.436 E37.37243
G1 X36.023 Y119.085 E37.40424
G1 X35.482 Y118.668 E37.43604
G1 X34.993 Y118.19 E37.46788
G1 X34.564 Y117.659 E37.49967
G1 X34.199 Y117.081 E37.5315
G1 X33.905 Y116.465 E37.56328
G1 X33.684 Y115.818 E37.59512
G1 X33.54 Y115.15 E37.62694
G1 X33.474 Y114.406 E37.66172
G1 X33.463 Y113.901 E37.68524
G1 X33.463 Y44.363 E40.92322
G1 X33.472 Y43.698 E40.95419
G1 X33.521 Y43.017 E40.98598
G1 X33.649 Y42.345 E41.01783
G1 X33.855 Y41.694 E41.04963
G1 X34.136 Y41.071 E41.08145
G1 X34.487 Y40.485 E41.11326
G1 X34.905 Y39.944 E41.14509
G1 X35.382 Y39.456 E41.17687
M204 S3000
M205 X10 Y10
G0 F3000 X35.928 Y39.723
M204 S1800
M205 X8 Y8
G1 F2400 X36.451 Y39.339 E41.20708
G1 X37.018 Y39.021 E41.23735
G1 X37.619 Y38.775 E41.26759
G1 X38.246 Y38.605 E41.29784
G1 X39.258 Y38.488 E41.34528
G1 X170.066 Y38.489 E47.43625
G1 X170.764 Y38.499 E47.46875
G1 X171.411 Y38.548 E47.49897
G1 X172.048 Y38.676 E47.52922
G1 X172.664 Y38.882 E47.55946
G1 X173.251 Y39.162 E47.58975
G1 X173.798 Y39.511 E47.61996
G1 X174.299 Y39.925 E47.65022
G1 X174.744 Y40.398 E47.68046
G1 X175.129 Y40.922 E47.71074
G1 X175.446 Y41.489 E47.74099
G1 X175.691 Y42.09 E47.77121
G1 X175.86 Y42.717 E47.80145
G1 X175.977 Y43.721 E47.84852
G1 X175.978 Y113.608 E51.10275
G1 X175.969 Y114.325 E51.13614
G1 X175.92 Y114.973 E51.1664
G1 X175.793 Y115.61 E51.19664
G1 X175.589 Y116.227 E51.2269
G1 X175.31 Y116.813 E51.25712
G1 X174.961 Y117.362 E51.28741
G1 X174.548 Y117.863 E51.31765
G1 X174.076 Y118.309 E51.34789
G1 X173.553 Y118.695 E51.37815
G1 X172.987 Y119.013 E51.40838
G1 X172.386 Y119.259 E51.43862
G1 X171.759 Y119.429 E51.46887
G1 X170.743 Y119.548 E51.5165
G1 X39.942 Y119.548 E57.60715
G1 X39.244 Y119.539 E57.63965
G1 X38.596 Y119.49 E57.66991
G1 X37.959 Y119.363 E57.70016
G1 X37.343 Y119.158 E57.73039
G1 X36.756 Y118.879 E57.76065
G1 X36.208 Y118.53 E57.7909
G1 X35.707 Y118.117 E57.82114
G1 X35.26 Y117.645 E57.85141
G1 X34.875 Y117.122 E57.88165
G1 X34.557 Y116.555 E57.91192
G1 X34.311 Y115.954 E57.94216
G1 X34.141 Y115.327 E57.97241
G1 X34.023 Y114.296 E58.02073
G1 X34.022 Y44.371 E61.27673
G1 X34.031 Y43.706 E61.3077
G1 X34.08 Y43.058 E61.33796
G1 X34.208 Y42.421 E61.36821
G1 X34.413 Y41.804 E61.39848
G1 X34.693 Y41.218 E61.42873
G1 X35.042 Y40.67 E61.45898
G1 X35.456 Y40.169 E61.48924
G1 X35.928 Y39.723 E61.51948
M204 S3000
M205 X10 Y10
G1 F2400 E55.51948
G0 F3000 X39.442 Y43.908
M204 S1800
M205 X8 Y8
;TYPE:SUPPORT
G1 F2400 E61.51948
G1 F2100 X39.443 Y114.128 E63.85501
G1 X40.816 Y114.128 E63.90067
G1 X40.816 Y44.594 E66.21338
G1 X40.815 Y43.908 E66.2362
G1 X39.442 Y43.908 E66.28186
M204 S3000
M205 X10 Y10
G0 F3000 X40 Y44.048
M204 S1800
M205 X8 Y8
G1 F1500 X40 Y113.988 E69.53856
M204 S3000
M205 X10 Y10
G1 F2400 E63.53856
G0 F3000 X40.676 Y106.622
M204 S1800
M205 X8 Y8
G1 F2400 E69.53856
G1 F1500 X39.581 Y105.99 E69.59744
M204 S3000
M205 X10 Y10
G0 F3000 X39.583 Y106.472
M204 S1800
M205 X8 Y8
G1 F1500 X40.675 Y105.842 E69.65614
M204 S3000
M205 X10 Y10
G1 F2400 E63.65614
G0 F3000 X40.675 Y97.385
M204 S1800
M205 X8 Y8
G1 F2400 E69.65614
G1 F1500 X39.582 Y96.753 E69.71493
M204 S3000
M205 X10 Y10
G0 F3000 X39.582 Y97.235
M204 S1800
M205 X8 Y8
G1 F1500 X40.674 Y96.605 E69.77363
M204 S3000
M205 X10 Y10
G1 F2400 E63.77363
G0 F3000 X40.675 Y88.147
M204 S1800
M205 X8 Y8
G1 F2400 E69.77363
G1 F1500 X39.582 Y87.515 E69.83242
M204 S3000
M205 X10 Y10
G0 F3000 X39.583 Y87.997
M204 S1800
M205 X8 Y8
G1 F1500 X40.675 Y87.367 E69.89113
M204 S3000
M205 X10 Y10
G1 F2400 E63.89113
G0 F3000 X40.675 Y78.909
M204 S1800
M205 X8 Y8
G1 F2400 E69.89113
G1 F1500 X39.581 Y78.278 E69.94993
M204 S3000
M205 X10 Y10
G0 F3000 X39.582 Y78.76
M204 S1800
M205 X8 Y8
G1 F1500 X40.674 Y78.13 E70.00864
M204 S3000
M205 X10 Y10
G1 F2400 E64.00864
G0 F3000 X40.675 Y69.672
M204 S1800
M205 X8 Y8
G1 F2400 E70.00864
G1 F1500 X39.581 Y69.04 E70.06747
M204 S3000
M205 X10 Y10
G0 F3000 X39.582 Y69.523
M204 S1800
M205 X8 Y8
G1 F1500 X40.674 Y68.892 E70.12619
M204 S3000
M205 X10 Y10
G1 F2400 E64.12619
G0 F3000 X40.675 Y60.434
M204 S1800
M205 X8 Y8
G1 F2400 E70.12619
G1 F1500 X39.581 Y59.802 E70.18503
M204 S3000
M205 X10 Y10
G0 F3000 X39.582 Y60.285
M204 S1800
M205 X8 Y8
G1 F1500 X40.674 Y59.654 E70.24375
M204 S3000
M205 X10 Y10
G1 F2400 E64.24375
G0 F3000 X40.675 Y51.196
M204 S1800
M205 X8 Y8
G1 F2400 E70.24375
G1 F1500 X39.582 Y50.565 E70.30252
M204 S3000
M205 X10 Y10
G0 F3000 X39.582 Y51.048
M204 S1800
M205 X8 Y8
G1 F1500 X40.674 Y50.417 E70.36125
M204 S3000
M205 X10 Y10
G1 F2400 E64.36125
G0 F3000 X45.45 Y43.115
G0 X164.549 Y43.115
G0 X169.184 Y43.908
M204 S1800
M205 X8 Y8
G1 F2400 E70.36125
G1 F2100 X169.185 Y114.128 E72.69677
G1 X170.558 Y114.128 E72.74244
G1 X170.558 Y44.594 E75.05515
G1 X170.557 Y43.908 E75.07797
G1 X169.184 Y43.908 E75.12363
M204 S3000
M205 X10 Y10
G1 F2400 E69.12363
G0 F3000 X170.416 Y49.411
M204 S1800
M205 X8 Y8
G1 F2400 E75.12363
G1 F1500 X169.323 Y50.042 E75.1824
M204 S3000
M205 X10 Y10
G0 F3000 X169.322 Y51.57
M204 S1800
M205 X8 Y8
G1 F1500 X170.416 Y52.201 E75.24121
M204 S3000
M205 X10 Y10
G1 F2400 E69.24121
G0 F3000 X170.416 Y58.649
M204 S1800
M205 X8 Y8
G1 F2400 E75.24121
G1 F1500 X169.323 Y59.28 E75.29997
M204 S3000
M205 X10 Y10
G0 F3000 X169.322 Y60.808
M204 S1800
M205 X8 Y8
G1 F1500 X170.416 Y61.439 E75.35878
M204 S3000
M205 X10 Y10
G1 F2400 E69.35878
G0 F3000 X170.415 Y67.887
M204 S1800
M205 X8 Y8
G1 F2400 E75.35878
G1 F1500 X169.323 Y68.517 E75.41748
M204 S3000
M205 X10 Y10
G0 F3000 X169.323 Y70.045
M204 S1800
M205 X8 Y8
G1 F1500 X170.417 Y70.677 E75.47631
M204 S3000
M205 X10 Y10
G1 F2400 E69.47631
G0 F3000 X170.416 Y77.124
M204 S1800
M205 X8 Y8
G1 F2400 E75.47631
G1 F1500 X169.323 Y77.755 E75.53508
M204 S3000
M205 X10 Y10
G0 F3000 X169.323 Y79.283
M204 S1800
M205 X8 Y8
G1 F1500 X170.417 Y79.915 E75.59391
M204 S3000
M205 X10 Y10
G1 F2400 E69.59391
G0 F3000 X170.416 Y86.362
M204 S1800
M205 X8 Y8
G1 F2400 E75.59391
G1 F1500 X169.324 Y86.992 E75.65262
M204 S3000
M205 X10 Y10
G0 F3000 X169.323 Y88.521
M204 S1800
M205 X8 Y8
G1 F1500 X170.418 Y89.153 E75.71149
M204 S3000
M205 X10 Y10
G1 F2400 E69.71149
G0 F3000 X170.417 Y95.599
M204 S1800
M205 X8 Y8
G1 F2400 E75.71149
G1 F1500 X169.324 Y96.23 E75.77025
M204 S3000
M205 X10 Y10
G0 F3000 X169.323 Y97.759
M204 S1800
M205 X8 Y8
G1 F1500 X170.418 Y98.391 E75.82912
M204 S3000
M205 X10 Y10
G1 F2400 E69.82912
G0 F3000 X170.417 Y104.836
M204 S1800
M205 X8 Y8
G1 F2400 E75.82912
G1 F1500 X169.324 Y105.467 E75.88789
M204 S3000
M205 X10 Y10
G0 F3000 X169.323 Y106.996
M204 S1800
M205 X8 Y8
G1 F1500 X170.418 Y107.628 E75.94676
M204 S3000
M205 X10 Y10
G1 F2400 E69.94676
G0 F3000 X165.45 Y114.068
M204 S1800
M205 X8 Y8
;TYPE:SUPPORT-INTERFACE
G1 F2400 E75.94676
G1 F1500 X165.449 Y43.968 E79.21091
G1 X168.844 Y43.968 E79.369
G1 X168.845 Y114.068 E82.63315
G1 X165.45 Y114.068 E82.79123
M204 S3000
M205 X10 Y10
G1 F2400 E76.79123
G0 F3000 X164.55 Y114.921
G0 X45.451 Y114.921
G0 X44.551 Y114.068
M204 S1800
M205 X8 Y8
G1 F2400 E82.79123
G1 F1500 X41.156 Y114.068 E82.94932
G1 X41.155 Y43.968 E86.21347
G1 X44.55 Y43.968 E86.37155
G1 X44.551 Y114.068 E89.6357
M204 S3000
M205 X10 Y10
G0 F3000 X42.853 Y112.371
M204 S1800
M205 X8 Y8
G1 F1111.1 X42.853 Y45.665 E93.82895
M204 S3000
M205 X10 Y10
G0 F3000 X42.195 Y45.008
M204 S1800
M205 X8 Y8
G1 F1500 X42.196 Y113.028 E96.99625
G1 X43.511 Y113.028 E97.05748
G1 X43.51 Y45.008 E100.22478
G1 X42.195 Y45.008 E100.28601
M204 S3000
M205 X10 Y10
G0 F3000 X41.635 Y44.448
M204 S1800
M205 X8 Y8
G1 F1500 X41.636 Y113.588 E103.50546
G1 X44.071 Y113.588 E103.61884
G1 X44.071 Y45.665 E106.78162
G1 X44.07 Y44.448 E106.83829
G1 X41.635 Y44.448 E106.95167
M204 S3000
M205 X10 Y10
G1 F2400 E100.95167
G0 F3000 X45.45 Y43.115
G0 X164.549 Y43.115
G0 X165.929 Y44.448
M204 S1800
M205 X8 Y8
G1 F2400 E106.95167
G1 F1500 X165.93 Y113.588 E110.17112
G1 X168.365 Y113.588 E110.2845
G1 X168.365 Y45.665 E113.44728
G1 X168.364 Y44.448 E113.50395
G1 X165.929 Y44.448 E113.61734
M204 S3000
M205 X10 Y10
G0 F3000 X166.489 Y45.008
M204 S1800
M205 X8 Y8
G1 F1500 X166.49 Y113.028 E116.78463
G1 X167.805 Y113.028 E116.84586
G1 X167.805 Y45.665 E119.98257
G1 X167.804 Y45.008 E120.01316
G1 X166.489 Y45.008 E120.07439
M204 S3000
M205 X10 Y10
G0 F3000 X167.147 Y45.665
M204 S1800
M205 X8 Y8
G1 F1111.1 X167.147 Y112.371 E124.26764
M204 S3000
M205 X10 Y10
G1 F2400 E118.26764
;MESH:body-back.stl
G0 F3000 X164.561 Y112.37
G0 X163.496 Y112.371
G0 X47.504 Y45.168
M204 S1800
M205 X8 Y8
;TYPE:WALL-INNER
G1 F2400 E124.26764
G1 F1500 X47.504 Y112.868 E127.42004
G1 X81.354 Y112.868 E128.99624
G1 X162.497 Y112.868 E132.77459
G1 X162.496 Y45.168 E135.92699
G1 X47.504 Y45.168 E141.2815
M204 S3000
M205 X10 Y10
G0 F3000 X46.944 Y44.608
M204 S1800
M205 X8 Y8
G1 F1500 X46.944 Y113.428 E144.48605
G1 X81.354 Y113.428 E146.08832
G1 X163.057 Y113.428 E149.89275
G1 X163.056 Y44.608 E153.0973
G1 X46.944 Y44.608 E158.50396
M204 S3000
M205 X10 Y10
G0 F3000 X46.384 Y44.048
M204 S1800
M205 X8 Y8
;TYPE:WALL-OUTER
G1 F1500 X46.384 Y113.988 E161.76066
G1 X81.354 Y113.988 E163.38901
G1 X163.617 Y113.988 E167.21952
G1 X163.616 Y44.048 E170.47622
G1 X46.384 Y44.048 E175.93503
M204 S3000
M205 X10 Y10
G0 F3000 X46.384 Y44.248
G0 X46.973 Y44.638
G0 X48.044 Y45.708
M204 S1800
M205 X8 Y8
;TYPE:SKIN
G1 F1500 X48.044 Y112.328 E179.03714
G1 X161.957 Y112.328 E184.34141
G1 X161.957 Y79.018 E185.89246
G1 X161.956 Y45.708 E187.44351
G1 X48.044 Y45.708 E192.74773
M204 S3000
M205 X10 Y10
G0 F3000 X48.69 Y112.047
M204 S1800
M205 X8 Y8
G1 F1500 X48.323 Y111.68 E192.7719
M204 S3000
M205 X10 Y10
G0 F3000 X48.323 Y110.888
M204 S1800
M205 X8 Y8
G1 F1500 X49.482 Y112.047 E192.84822
M204 S3000
M205 X10 Y10
G0 F3000 X50.274 Y112.047
M204 S1800
M205 X8 Y8
G1 F1500 X48.323 Y110.096 E192.9767
M204 S3000
M205 X10 Y10
G0 F3000 X48.323 Y109.304
M204 S1800
M205 X8 Y8
G1 F1500 X51.066 Y112.047 E193.15733
M204 S3000
M205 X10 Y10
G0 F3000 X51.858 Y112.047
M204 S1800
M205 X8 Y8
G1 F1500 X48.323 Y108.512 E193.39012
M204 S3000
M205 X10 Y10
G0 F3000 X48.323 Y107.72
M204 S1800
M205 X8 Y8
G1 F1500 X52.65 Y112.047 E193.67506
M204 S3000
M205 X10 Y10
G0 F3000 X53.442 Y112.047
M204 S1800
M205 X8 Y8
G1 F1500 X48.323 Y106.928 E194.01215
M204 S3000
M205 X10 Y10
G0 F3000 X48.323 Y106.136
M204 S1800
M205 X8 Y8
G1 F1500 X54.234 Y112.047 E194.4014
M204 S3000
M205 X10 Y10
G0 F3000 X55.026 Y112.047
M204 S1800
M205 X8 Y8
G1 F1500 X48.323 Y105.344 E194.8428
M204 S3000
M205 X10 Y10
G0 F3000 X48.323 Y104.552
M204 S1800
M205 X8 Y8
G1 F1500 X55.818 Y112.047 E195.33636
M204 S3000
M205 X10 Y10
G0 F3000 X56.61 Y112.047
M204 S1800
M205 X8 Y8
G1 F1500 X48.323 Y103.76 E195.88208
M204 S3000
M205 X10 Y10
G0 F3000 X48.323 Y102.968
M204 S1800
M205 X8 Y8
G1 F1500 X57.402 Y112.047 E196.47994
M204 S3000
M205 X10 Y10
G0 F3000 X58.194 Y112.047
M204 S1800
M205 X8 Y8
G1 F1500 X48.323 Y102.176 E197.12997
M204 S3000
M205 X10 Y10
G0 F3000 X48.323 Y101.384
M204 S1800
M205 X8 Y8
G1 F1500 X58.986 Y112.047 E197.83214
M204 S3000
M205 X10 Y10
G0 F3000 X59.778 Y112.047
M204 S1800
M205 X8 Y8
G1 F1500 X48.323 Y100.593 E198.58644
M204 S3000
M205 X10 Y10
G0 F3000 X48.323 Y99.801
M204 S1800
M205 X8 Y8
G1 F1500 X60.57 Y112.047 E199.39289
M204 S3000
M205 X10 Y10
G0 F3000 X61.362 Y112.047
M204 S1800
M205 X8 Y8
G1 F1500 X48.323 Y99.009 E200.2515
M204 S3000
M205 X10 Y10
G0 F3000 X48.323 Y98.217
M204 S1800
M205 X8 Y8
G1 F1500 X62.153 Y112.047 E201.16223
M204 S3000
M205 X10 Y10
G0 F3000 X62.945 Y112.047
M204 S1800
M205 X8 Y8
G1 F1500 X48.323 Y97.425 E202.12511
M204 S3000
M205 X10 Y10
G0 F3000 X48.323 Y96.633
M204 S1800
M205 X8 Y8
G1 F1500 X63.737 Y112.047 E203.14015
M204 S3000
M205 X10 Y10
G0 F3000 X64.529 Y112.047
M204 S1800
M205 X8 Y8
G1 F1500 X48.323 Y95.841 E204.20735
M204 S3000
M205 X10 Y10
G0 F3000 X48.323 Y95.049
M204 S1800
M205 X8 Y8
G1 F1500 X65.321 Y112.047 E205.32669
M204 S3000
M205 X10 Y10
G0 F3000 X66.113 Y112.047
M204 S1800
M205 X8 Y8
G1 F1500 X48.323 Y94.257 E206.49819
M204 S3000
M205 X10 Y10
G0 F3000 X48.323 Y93.465
M204 S1800
M205 X8 Y8
G1 F1500 X66.905 Y112.047 E207.72185
M204 S3000
